icons-dark/mimetypes/64/application-vnd.iccprofile.svg

<?xml version="1.0" encoding="UTF-8" standalone="no"?>
<svg width="64" version="1.1" xmlns="http://www.w3.org/2000/svg" viewBox="0 0 64 64" height="64" xmlns:xlink="http://www.w3.org/1999/xlink" xmlns:inkscape="http://www.inkscape.org/namespaces/inkscape">
 <defs id="defs4">
  <linearGradient id="linearGradient4351">
   <stop style="stop-color:#fddda3" id="stop4353"/>
   <stop offset="1" style="stop-color:#fde3a7" id="stop4355"/>
  </linearGradient>
  <linearGradient id="linearGradient4300">
   <stop style="stop-color:#f39c12" id="stop4302"/>
   <stop offset="1" style="stop-color:#f89406" id="stop4304"/>
  </linearGradient>
  <linearGradient inkscape:collect="always" xlink:href="#linearGradient4300" id="linearGradient4306" y1="61" y2="3" x2="0" gradientUnits="userSpaceOnUse"/>
  <linearGradient inkscape:collect="always" xlink:href="#linearGradient4410" id="linearGradient4427" y1="31" x1="54" y2="17" x2="40" gradientUnits="userSpaceOnUse" gradientTransform="matrix(1 0 0 -1 -14 78)"/>
  <linearGradient inkscape:collect="always" id="linearGradient4410">
   <stop style="stop-color:#383e51" id="stop4412"/>
   <stop offset="1" style="stop-color:#655c6f;stop-opacity:0" id="stop4414"/>
  </linearGradient>
  <linearGradient inkscape:collect="always" xlink:href="#linearGradient4351" id="linearGradient4357" y1="61" y2="47" x2="0" gradientUnits="userSpaceOnUse"/>
 </defs>
 <metadata id="metadata84"/>
 <path style="fill:url(#linearGradient4306)" id="rect3500" d="M 10 3 L 10 61 L 40 61 L 54 47 L 54 17 L 54 3 L 40 3 L 10 3 z "/>
 <rect width="30" x="10" y="60" height="1" style="fill:#2e3132;fill-opacity:0.294118" id="rect4169"/>
 <rect width="44" x="10" y="3" height="1" style="fill:#ffffff;fill-opacity:0.409836" id="rect4236"/>
 <path inkscape:connector-curvature="0" style="fill:url(#linearGradient4357);fill-rule:evenodd" id="path4314" d="M 54,47 40,61 40,47 Z"/>
 <path inkscape:connector-curvature="0" style="fill:url(#linearGradient4427);opacity:0.2;fill-rule:evenodd" id="path4320" d="M 26,61 40,47 40,61 Z"/>
 <path style="shape-rendering:auto;color-interpolation-filters:linearRGB;fill:#fddda3;image-rendering:auto;text-rendering:auto;color:#000000;color-rendering:auto;color-interpolation:sRGB" id="path4166" d="M 32 21 C 30.124356 28 25 32.134007 25 36 C 25 39.865993 28.134007 43 32 43 C 35.865993 43 39 39.865993 39 36 C 39 32.134007 33.875644 28 32 21 z M 36.8125 32.427734 A 6 6 0 0 1 38 36 A 6 6 0 0 1 32 42 A 6 6 0 0 1 28.433594 40.816406 A 7 7 0 0 0 30 41 A 7 7 0 0 0 37 34 A 7 7 0 0 0 36.8125 32.427734 z "/>
</svg>

<svg width="64" xmlns="http://www.w3.org/2000/svg" viewBox="0 0 64 64" height="64">
 <defs>
  <linearGradient id="a" y1="3" y2="61" x2="0" gradientUnits="userSpaceOnUse" gradientTransform="matrix(1 0 0-1 0 64)">
   <stop stop-color="#f39c12"/>
   <stop offset="1" stop-color="#f89406"/>
  </linearGradient>
  <linearGradient id="b" y1="61" y2="47" x2="0" gradientUnits="userSpaceOnUse" gradientTransform="matrix(1 0 0-1 0 64)">
   <stop stop-color="#fddda3"/>
   <stop offset="1" stop-color="#fde3a7"/>
  </linearGradient>
  <linearGradient id="c" y1="17" x1="40" y2="31" x2="54" gradientUnits="userSpaceOnUse">
   <stop stop-color="#383e51"/>
   <stop offset="1" stop-color="#655c6f" stop-opacity="0"/>
  </linearGradient>
 </defs>
 <path fill="url(#a)" d="m10 61v-58h30l14 14v44h-14z"/>
 <g transform="scale(1-1)">
  <rect width="30" x="10" y="-4" fill="#ffffff" height="1" fill-opacity=".412"/>
  <rect width="44" x="10" y="-61" fill="#2e3132" height="1" fill-opacity=".294"/>
 </g>
 <g fill-rule="evenodd">
  <path fill="url(#b)" d="m54 17l-14-14v14z"/>
  <path opacity=".2" fill="url(#c)" d="m40 17l14 14v-14z"/>
 </g>
 <path fill="#fddda3" color-rendering="auto" shape-rendering="auto" color-interpolation-filters="linearRGB" image-rendering="auto" text-rendering="auto" color-interpolation="sRGB" color="#000000" d="m32 21c-1.876 7-7 11.134-7 15 0 3.866 3.134 7 7 7 3.866 0 7-3.134 7-7 0-3.866-5.124-8-7-15m4.8125 11.427734a6 6 0 0 1 1.1875 3.572266 6 6 0 0 1 -6 6 6 6 0 0 1 -3.566406 -1.183594 7 7 0 0 0 1.566406 .183594 7 7 0 0 0 7 -7 7 7 0 0 0 -.1875 -1.572266"/>
</svg>
